!!!OTL: Der sterbende J&uuml;ngling (2-29), S. 75f
!!!id: K1115
**kern
*clefG2
*k[]
*C:
{8.g
16f
=1
4.e
8e
8e
8e
8a
8g
=2
8g
8f
4f}
4r
=3
{8.f
16e
=4
4.d
8d
8d
8d
8g
8f
=5
2e}
4r
=6
{8.g
16g
=7
4.g
8e
8e
8g
8.a
16g
=8
8g
8f
4f}
4r
=9
{8.f
16e
=10
4.d
8d
8d
8d
8.g
16f
=11
2e}
4r
=12
{8.cc
16cc
=13
4.b
8b
8cc
8b
8a
8g
=14
8g
8cc
4cc}
4r
=15
{8.cc
16cc
=16
4.b
8a
8g
8g
8a
8g
=17
2e}
4r
=18
{8.g
16g
=19
4.g
8e
8e
8e
8a
8g
=20
8g
8f
4f}
4r
=21
{8.f
16e
=22
4.d
8d
8d
8d
8g
8f
=23
4f
4e}
4r
=24
{8.g
16g
=25
4.cc
8cc
8cc
8dd
8ee
8cc
=26
4b
4a}
4r
=27
{16c
8cc
8b
8a
16c
=28
4.g
8g
8b
8a
8g
8f
=29
2e}
4r
=30
{8.g
16g
=31
4.cc
8cc
8cc
8dd
8ee
8cc
=32
4b
4a}
4r
=33
{16c
8cc
8b
8a
16c
=34
4.g
8g
8b
8a
8g
8f
=35
2e}
4r
==
*-
!!!minrhy: 16
!!!meters: 4/4 ]  ZZ[12
!!!cut: Der sterbende J&uuml;ngling (2-29), S. 75f
!!!reg: Luxemburg
!!!trd: KINTZELE, Guillaume: An der Ucht, Bd. 2, Luxemburg 1927
!!!rhy1: X_.X  X__.X_X_X_X_X_  X_X_X__0__
!!!rhy2: X_.X  X__.X_X_X_X_X_  X___0__
!!!key: K1115  16  C 4/4 ]  ZZ[12
!!!mod: HEPTATONIK IONISCH]  AMBITUS[9
!!!kad: 4343+13436363
!!!akz: 335_223_535_223_7+15_753_535_224_+1+17_573_+1+17_573_
!!!fot: 'a__b__c__b__d__e__cv_as_f__g__f__g__
!!!for: 'a__aw_b__bw_a__aw_a__aw_aw_aw_aw_aw_
!!!fok: '\__\__Sd_\__V__\__\__\__^a_\__^a_\__
!! PHRAS[AUFTAKTIG]
!!!fkt: Abschied?
!!!bem: in der Quelle mit einer 2. Stimme versehen
!! KINTZELE
!! PR[15] 2K[0] 2G[0] 3K[9] 3G[3] 4A[1] 4Ü[0] 5A[0] 6K[0] 6G[7]
!! 7K[0] 7G[0] 8A[0] MEHR[0] SI[21] ABS[68] SR[0] SP[21]
!! ST[12] 2k[18] 2g[46] 3k[0] 3g[0] 4d[1] 4ü[0] 5d[0] 6k[0] 6g[0]
!! 7k[0] 7g[0] 8d[0] mehr[0] si[65] dm[-44] sr[63] sp[1]
!! 1F[12] 2F[68] 3F[3] 4F[4] LF[0] 2P[1] 3P[11] 4P[0] TRI[0] DF[6] AB[73]
!! TF[0] U3K[0] U3[0] U4[0] U4Ü[0] U5[0] U6K[0] U6[0] U7K[0] U7[0]
!! N1[0] N2K[0] N2[0] N3K[0] N3[10] N4[16] N4Ü[0] N5[28] N6K[0] N6[12]
!!!n7k: 0] N7[12] O1[9] O2K[0] O2[12] O3K[0] O3[3] HÖ[0
!!!RNB: symbol: &uuml;  = u umlaut (UTF-8: Ã¼)
